!!!OTL: Baigu gaidi yicengceng
!!!ARE: Asia, China,ÿYunnan dongchuan
!! II, 47
!!!SCT: C1481
!!!YEM: Copyright 1995, estate of Helmut Schaffrath.
**kern
*ICvox
*Ivox
!! Irregular meter.
*MX
*k[f#]
*G:
{8a
8b
8a
8a
=1
2.dd
=2
4.ee
24dd
24ee
24dd
8a
=3
4a
24dd
24ee
24dd
8a
8a
4e}
{8a
16g
16a
8a
16g
16a
=4
8g
8g
8e
4.d
4d
8r}
{8d
8d
8r
8g
8a
8a
=5
8e
16e
16g
8g
8e}
=6
{8g
16a
16a
8g
16g
16a
=7
8g
8g
4d
=8
4d
4r}
==
!!!AGN: Shange. Suku
!!!AMT: irregular
!!!AIN: vox
!!!EED: Helmut Schaffrath
!!!EEV: 1.0
*-
